Newaita-dark/apps/64/diodon.svg

<?xml version="1.0" encoding="UTF-8"?>
<svg xmlns="http://www.w3.org/2000/svg" xmlns:xlink="http://www.w3.org/1999/xlink" width="64pt" height="64pt" viewBox="0 0 64 64" version="1.1">
<defs>
<linearGradient id="linear0" gradientUnits="userSpaceOnUse" x1="254" y1="233.5" x2="254" y2="254.666672" gradientTransform="matrix(0.125012,0,0,0.125012,-0.00000763012,26.87757)">
<stop offset="0" style="stop-color:rgb(0%,0%,0%);stop-opacity:0.27451;"/>
<stop offset="1" style="stop-color:rgb(0%,0%,0%);stop-opacity:0;"/>
</linearGradient>
<radialGradient id="radial0" gradientUnits="userSpaceOnUse" cx="450.908936" cy="189.579361" fx="450.908936" fy="189.579361" r="21.166656" gradientTransform="matrix(0.000000348341,-0.156265,-0.281277,-0.000000203077,100.292171,127.190665)">
<stop offset="0" style="stop-color:rgb(0%,0%,0%);stop-opacity:0.313726;"/>
<stop offset="0.222222" style="stop-color:rgb(0%,0%,0%);stop-opacity:0.27451;"/>
<stop offset="1" style="stop-color:rgb(0%,0%,0%);stop-opacity:0;"/>
</radialGradient>
<radialGradient id="radial1" gradientUnits="userSpaceOnUse" cx="450.908936" cy="189.579361" fx="450.908936" fy="189.579361" r="21.166656" gradientTransform="matrix(-0.000000348341,0.156265,0.281277,0.000000203077,-36.786098,-15.054961)">
<stop offset="0" style="stop-color:rgb(0%,0%,0%);stop-opacity:0.313726;"/>
<stop offset="0.222222" style="stop-color:rgb(0%,0%,0%);stop-opacity:0.27451;"/>
<stop offset="1" style="stop-color:rgb(0%,0%,0%);stop-opacity:0;"/>
</radialGradient>
<radialGradient id="radial2" gradientUnits="userSpaceOnUse" cx="450.908936" cy="189.579361" fx="450.908936" fy="189.579361" r="21.166656" gradientTransform="matrix(-0.000000348341,-0.156265,0.281277,-0.000000203077,-36.786098,127.190665)">
<stop offset="0" style="stop-color:rgb(0%,0%,0%);stop-opacity:0.313726;"/>
<stop offset="0.222222" style="stop-color:rgb(0%,0%,0%);stop-opacity:0.27451;"/>
<stop offset="1" style="stop-color:rgb(0%,0%,0%);stop-opacity:0;"/>
</radialGradient>
<radialGradient id="radial3" gradientUnits="userSpaceOnUse" cx="450.908936" cy="189.579361" fx="450.908936" fy="189.579361" r="21.166656" gradientTransform="matrix(0.000000348341,0.156265,-0.281277,0.000000203077,100.292167,-15.054959)">
<stop offset="0" style="stop-color:rgb(0%,0%,0%);stop-opacity:0.313726;"/>
<stop offset="0.222222" style="stop-color:rgb(0%,0%,0%);stop-opacity:0.27451;"/>
<stop offset="1" style="stop-color:rgb(0%,0%,0%);stop-opacity:0;"/>
</radialGradient>
<linearGradient id="linear1" gradientUnits="userSpaceOnUse" x1="288.395844" y1="-25.791676" x2="288.395844" y2="-141.414581" gradientTransform="matrix(0.150699,0,0,0.434824,-11.708026,67.282696)">
<stop offset="0" style="stop-color:rgb(81.176472%,84.705883%,86.274511%);stop-opacity:1;"/>
<stop offset="1" style="stop-color:rgb(92.54902%,93.725491%,94.509804%);stop-opacity:1;"/>
</linearGradient>
<linearGradient id="linear2" gradientUnits="userSpaceOnUse" x1="349.851318" y1="-50.133408" x2="349.851318" y2="65.489502" gradientTransform="matrix(-0.150699,0,0,-0.434824,105.644082,34.268637)">
<stop offset="0" style="stop-color:rgb(81.176472%,84.705883%,86.274511%);stop-opacity:1;"/>
<stop offset="1" style="stop-color:rgb(92.54902%,93.725491%,94.509804%);stop-opacity:1;"/>
</linearGradient>
<linearGradient id="linear3" gradientUnits="userSpaceOnUse" x1="960" y1="935.118103" x2="960" y2="175.118134" gradientTransform="matrix(1,0,0,1,0,0)">
<stop offset="0" style="stop-color:rgb(47.058824%,56.470591%,61.176473%);stop-opacity:1;"/>
<stop offset="1" style="stop-color:rgb(56.470591%,64.313728%,68.235296%);stop-opacity:1;"/>
</linearGradient>
<linearGradient id="linear4" gradientUnits="userSpaceOnUse" x1="105.833344" y1="-105.166656" x2="105.833328" y2="-121.041656" gradientTransform="matrix(1,0,0,1,148.166672,-13.229177)">
<stop offset="0" style="stop-color:rgb(81.176472%,84.705883%,86.274511%);stop-opacity:1;"/>
<stop offset="1" style="stop-color:rgb(92.54902%,93.725491%,94.509804%);stop-opacity:1;"/>
</linearGradient>
<linearGradient id="linear5" gradientUnits="userSpaceOnUse" x1="105.833344" y1="-105.166656" x2="105.833328" y2="-121.041656" gradientTransform="matrix(1,0,0,1,100.541672,-13.229177)">
<stop offset="0" style="stop-color:rgb(81.176472%,84.705883%,86.274511%);stop-opacity:1;"/>
<stop offset="1" style="stop-color:rgb(92.54902%,93.725491%,94.509804%);stop-opacity:1;"/>
</linearGradient>
<linearGradient id="linear6" gradientUnits="userSpaceOnUse" x1="105.833344" y1="-105.166656" x2="105.833328" y2="-121.041656" gradientTransform="matrix(1,0,0,1,52.916672,-13.229177)">
<stop offset="0" style="stop-color:rgb(81.176472%,84.705883%,86.274511%);stop-opacity:1;"/>
<stop offset="1" style="stop-color:rgb(92.54902%,93.725491%,94.509804%);stop-opacity:1;"/>
</linearGradient>
<linearGradient id="linear7" gradientUnits="userSpaceOnUse" x1="105.833344" y1="-105.166656" x2="105.833328" y2="-121.041656" gradientTransform="matrix(1,0,0,1,243.416672,-13.229177)">
<stop offset="0" style="stop-color:rgb(81.176472%,84.705883%,86.274511%);stop-opacity:1;"/>
<stop offset="1" style="stop-color:rgb(92.54902%,93.725491%,94.509804%);stop-opacity:1;"/>
</linearGradient>
<linearGradient id="linear8" gradientUnits="userSpaceOnUse" x1="105.833344" y1="-105.166656" x2="105.833328" y2="-121.041656" gradientTransform="matrix(1,0,0,1,195.791672,-13.229177)">
<stop offset="0" style="stop-color:rgb(81.176472%,84.705883%,86.274511%);stop-opacity:1;"/>
<stop offset="1" style="stop-color:rgb(92.54902%,93.725491%,94.509804%);stop-opacity:1;"/>
</linearGradient>
</defs>
<g id="surface1">
<path style=" stroke:none;fill-rule:nonzero;fill:url(#linear0);" d="M 15.875 56.066406 L 47.628906 56.066406 L 47.628906 58.714844 L 15.875 58.714844 Z M 15.875 56.066406 "/>
<path style=" stroke:none;fill-rule:nonzero;fill:url(#radial0);" d="M 47.628906 56.066406 L 52.921875 56.066406 L 52.921875 53.421875 L 47.628906 53.421875 Z M 47.628906 56.066406 "/>
<path style=" stroke:none;fill-rule:nonzero;fill:url(#radial1);" d="M 15.875 56.066406 L 10.585938 56.066406 L 10.585938 58.714844 L 15.875 58.714844 Z M 15.875 56.066406 "/>
<path style=" stroke:none;fill-rule:nonzero;fill:url(#radial2);" d="M 15.875 56.066406 L 10.585938 56.066406 L 10.585938 53.421875 L 15.875 53.421875 Z M 15.875 56.066406 "/>
<path style=" stroke:none;fill-rule:nonzero;fill:url(#radial3);" d="M 47.628906 56.066406 L 52.921875 56.066406 L 52.921875 58.714844 L 47.628906 58.714844 Z M 47.628906 56.066406 "/>
<path style=" stroke:none;fill-rule:nonzero;fill:url(#linear1);" d="M 13.230469 5.792969 L 50.277344 5.792969 C 51.738281 5.792969 52.921875 6.976562 52.921875 8.4375 L 52.921875 53.421875 C 52.921875 54.882812 51.738281 56.066406 50.277344 56.066406 L 13.230469 56.066406 C 11.769531 56.066406 10.585938 54.882812 10.585938 53.421875 L 10.585938 8.4375 C 10.585938 6.976562 11.769531 5.792969 13.230469 5.792969 Z M 13.230469 5.792969 "/>
<path style=" stroke:none;fill-rule:nonzero;fill:rgb(25.882354%,25.882354%,25.882354%);fill-opacity:0.235294;" d="M 52.921875 45.484375 L 41.015625 56.066406 L 50.277344 56.066406 C 51.742188 56.066406 52.921875 54.886719 52.921875 53.421875 Z M 52.921875 45.484375 "/>
<path style=" stroke:none;fill-rule:nonzero;fill:url(#linear2);" d="M 41.015625 56.066406 L 52.921875 45.484375 L 43.660156 45.484375 C 42.195312 45.484375 41.015625 46.664062 41.015625 48.128906 Z M 41.015625 56.066406 "/>
<path style=" stroke:none;fill-rule:nonzero;fill:rgb(100%,100%,100%);fill-opacity:0.588235;" d="M 43.660156 45.484375 C 42.195312 45.484375 41.015625 46.664062 41.015625 48.128906 L 41.015625 48.792969 C 41.015625 47.324219 42.195312 46.144531 43.660156 46.144531 L 52.175781 46.144531 L 52.921875 45.484375 Z M 43.660156 45.484375 "/>
<path style="fill:none;stroke-width:3;stroke-linecap:round;stroke-linejoin:round;stroke:rgb(12.941177%,12.941177%,12.941177%);stroke-opacity:1;stroke-miterlimit:4;" d="M 328.093669 233.488176 L 423.334574 148.84001 L 349.247899 148.84001 C 337.530268 148.84001 328.093669 158.276608 328.093669 169.994239 Z M 328.093669 233.488176 " transform="matrix(0.125012,0,0,0.125012,-0.000000109285,26.877597)"/>
<path style=" stroke:none;fill-rule:nonzero;fill:rgb(0%,0%,0%);fill-opacity:0.235294;" d="M 10.585938 52.792969 L 10.585938 53.421875 C 10.585938 54.886719 11.765625 56.066406 13.230469 56.066406 L 50.277344 56.066406 C 51.742188 56.066406 52.921875 54.886719 52.921875 53.421875 L 52.921875 52.792969 C 52.921875 54.261719 51.742188 55.441406 50.277344 55.441406 L 13.230469 55.441406 C 11.765625 55.441406 10.585938 54.261719 10.585938 52.792969 Z M 10.585938 52.792969 "/>
<path style=" stroke:none;fill-rule:nonzero;fill:rgb(0%,0%,0%);fill-opacity:0.235294;" d="M 10.75 15.878906 L 52.757812 15.878906 L 52.757812 18.359375 L 10.75 18.359375 Z M 10.75 15.878906 "/>
<path style="fill-rule:nonzero;fill:url(#linear3);stroke-width:11.338583;stroke-linecap:round;stroke-linejoin:round;stroke:rgb(12.941177%,12.941177%,12.941177%);stroke-opacity:1;stroke-miterlimit:4;" d="M 400.001193 175.140764 C 355.714081 175.140764 320.048194 210.806652 320.048194 255.093763 L 320.048194 495.070859 L 1600.004772 495.070859 L 1600.004772 255.093763 C 1600.004772 210.806652 1564.338884 175.140764 1520.051773 175.140764 Z M 400.001193 175.140764 " transform="matrix(0.0330761,0,0,0.0330761,0,0)"/>
<path style=" stroke:none;fill-rule:nonzero;fill:rgb(100%,100%,100%);fill-opacity:0.392157;" d="M 13.230469 5.941406 C 11.765625 5.941406 10.585938 7.121094 10.585938 8.585938 L 10.585938 8.917969 C 10.585938 7.453125 11.765625 6.269531 13.230469 6.273438 L 50.277344 6.273438 C 51.742188 6.269531 52.921875 7.453125 52.921875 8.917969 L 52.921875 8.585938 C 52.921875 7.121094 51.742188 5.941406 50.277344 5.941406 Z M 13.230469 5.941406 "/>
<path style=" stroke:none;fill-rule:nonzero;fill:rgb(12.941177%,12.941177%,12.941177%);fill-opacity:1;" d="M 13.230469 5.605469 C 11.664062 5.605469 10.398438 6.871094 10.398438 8.4375 L 10.398438 53.421875 C 10.398438 54.988281 11.664062 56.253906 13.230469 56.253906 L 50.277344 56.253906 C 51.84375 56.253906 53.109375 54.988281 53.109375 53.421875 L 53.109375 8.4375 C 53.109375 6.871094 51.84375 5.605469 50.277344 5.605469 Z M 13.230469 5.980469 L 50.277344 5.980469 C 51.640625 5.980469 52.734375 7.074219 52.734375 8.4375 L 52.734375 53.421875 C 52.734375 54.789062 51.640625 55.878906 50.277344 55.878906 L 13.230469 55.878906 C 11.863281 55.878906 10.773438 54.789062 10.773438 53.421875 L 10.773438 8.4375 C 10.773438 7.074219 11.863281 5.980469 13.230469 5.980469 Z M 13.230469 5.980469 "/>
<path style="fill-rule:nonzero;fill:url(#linear4);stroke-width:3;stroke-linecap:round;stroke-linejoin:round;stroke:rgb(12.941177%,12.941177%,12.941177%);stroke-opacity:1;stroke-miterlimit:4;" d="M 246.070251 -134.257711 L 261.943736 -134.257711 C 266.318318 -134.257711 269.880478 -130.726798 269.880478 -126.320968 C 269.880478 -121.946386 266.318318 -118.384226 261.943736 -118.384226 L 246.070251 -118.384226 C 241.664422 -118.384226 238.133509 -121.946386 238.133509 -126.320968 C 238.133509 -130.726798 241.664422 -134.257711 246.070251 -134.257711 Z M 246.070251 -134.257711 " transform="matrix(0.125012,0,0,0.125012,0,26.877566)"/>
<path style="fill-rule:nonzero;fill:url(#linear5);stroke-width:3;stroke-linecap:round;stroke-linejoin:round;stroke:rgb(12.941177%,12.941177%,12.941177%);stroke-opacity:1;stroke-miterlimit:4;" d="M 198.449799 -134.257711 L 214.323283 -134.257711 C 218.697865 -134.257711 222.260025 -130.726798 222.260025 -126.320968 C 222.260025 -121.946386 218.697865 -118.384226 214.323283 -118.384226 L 198.449799 -118.384226 C 194.04397 -118.384226 190.513057 -121.946386 190.513057 -126.320968 C 190.513057 -130.726798 194.04397 -134.257711 198.449799 -134.257711 Z M 198.449799 -134.257711 " transform="matrix(0.125012,0,0,0.125012,0,26.877566)"/>
<path style="fill-rule:nonzero;fill:url(#linear6);stroke-width:3;stroke-linecap:round;stroke-linejoin:round;stroke:rgb(12.941177%,12.941177%,12.941177%);stroke-opacity:1;stroke-miterlimit:4;" d="M 150.7981 -134.257711 L 166.702831 -134.257711 C 171.077413 -134.257711 174.639573 -130.726798 174.639573 -126.320968 C 174.639573 -121.946386 171.077413 -118.384226 166.702831 -118.384226 L 150.7981 -118.384226 C 146.423517 -118.384226 142.861357 -121.946386 142.861357 -126.320968 C 142.861357 -130.726798 146.423517 -134.257711 150.7981 -134.257711 Z M 150.7981 -134.257711 " transform="matrix(0.125012,0,0,0.125012,0,26.877566)"/>
<path style="fill-rule:nonzero;fill:url(#linear7);stroke-width:3;stroke-linecap:round;stroke-linejoin:round;stroke:rgb(12.941177%,12.941177%,12.941177%);stroke-opacity:1;stroke-miterlimit:4;" d="M 341.311156 -134.257711 L 357.184641 -134.257711 C 361.559223 -134.257711 365.121383 -130.726798 365.121383 -126.320968 C 365.121383 -121.946386 361.559223 -118.384226 357.184641 -118.384226 L 341.311156 -118.384226 C 336.936574 -118.384226 333.374414 -121.946386 333.374414 -126.320968 C 333.374414 -130.726798 336.936574 -134.257711 341.311156 -134.257711 Z M 341.311156 -134.257711 " transform="matrix(0.125012,0,0,0.125012,0,26.877566)"/>
<path style="fill-rule:nonzero;fill:url(#linear8);stroke-width:3;stroke-linecap:round;stroke-linejoin:round;stroke:rgb(12.941177%,12.941177%,12.941177%);stroke-opacity:1;stroke-miterlimit:4;" d="M 293.690704 -134.257711 L 309.564188 -134.257711 C 313.93877 -134.257711 317.50093 -130.726798 317.50093 -126.320968 C 317.50093 -121.946386 313.93877 -118.384226 309.564188 -118.384226 L 293.690704 -118.384226 C 289.316122 -118.384226 285.753962 -121.946386 285.753962 -126.320968 C 285.753962 -130.726798 289.316122 -134.257711 293.690704 -134.257711 Z M 293.690704 -134.257711 " transform="matrix(0.125012,0,0,0.125012,0,26.877566)"/>
<path style=" stroke:none;fill-rule:nonzero;fill:rgb(37.64706%,49.019608%,54.509807%);fill-opacity:0.903974;" d="M 18.453125 28.285156 L 25.207031 28.285156 C 25.898438 28.285156 26.460938 28.875 26.460938 29.605469 C 26.460938 30.335938 25.898438 30.929688 25.207031 30.929688 L 18.453125 30.929688 C 17.761719 30.929688 17.199219 30.335938 17.199219 29.605469 C 17.199219 28.875 17.761719 28.285156 18.453125 28.285156 Z M 18.453125 28.285156 "/>
<path style=" stroke:none;fill-rule:nonzero;fill:rgb(25.882354%,25.882354%,25.882354%);fill-opacity:0.903974;" d="M 18.523438 21.667969 L 30.429688 21.667969 C 31.160156 21.667969 31.753906 22.261719 31.753906 22.992188 C 31.753906 23.722656 31.160156 24.316406 30.429688 24.316406 L 18.523438 24.316406 C 17.792969 24.316406 17.199219 23.722656 17.199219 22.992188 C 17.199219 22.261719 17.792969 21.667969 18.523438 21.667969 Z M 18.523438 21.667969 "/>
<path style=" stroke:none;fill-rule:nonzero;fill:rgb(25.882354%,25.882354%,25.882354%);fill-opacity:0.903974;" d="M 32.992188 34.898438 L 44.984375 34.898438 C 45.714844 34.898438 46.304688 35.492188 46.304688 36.222656 C 46.304688 36.953125 45.714844 37.546875 44.984375 37.546875 L 32.992188 37.546875 C 32.261719 37.546875 31.667969 36.953125 31.667969 36.222656 C 31.667969 35.492188 32.261719 34.898438 32.992188 34.898438 Z M 32.992188 34.898438 "/>
<path style=" stroke:none;fill-rule:nonzero;fill:rgb(37.64706%,49.019608%,54.509807%);fill-opacity:0.903974;" d="M 33.339844 41.515625 L 39.425781 41.515625 C 40.304688 41.515625 41.015625 42.105469 41.015625 42.835938 C 41.015625 43.566406 40.304688 44.160156 39.425781 44.160156 L 33.339844 44.160156 C 32.464844 44.160156 31.753906 43.566406 31.753906 42.835938 C 31.753906 42.105469 32.464844 41.515625 33.339844 41.515625 Z M 33.339844 41.515625 "/>
</g>
</svg>

<svg xmlns="http://www.w3.org/2000/svg" width="64pt" height="64pt" viewBox="0 0 64 64"><defs><linearGradient id="a" gradientUnits="userSpaceOnUse" x1="254" y1="233.5" x2="254" y2="254.667" gradientTransform="translate(0 26.878) scale(.12501)"><stop offset="0" stop-opacity=".275"/><stop offset="1" stop-opacity="0"/></linearGradient><radialGradient id="b" gradientUnits="userSpaceOnUse" cx="450.909" cy="189.579" fx="450.909" fy="189.579" r="21.167" gradientTransform="matrix(0 -.15626 -.28128 0 100.292 127.19)"><stop offset="0" stop-opacity=".314"/><stop offset=".222" stop-opacity=".275"/><stop offset="1" stop-opacity="0"/></radialGradient><radialGradient id="c" gradientUnits="userSpaceOnUse" cx="450.909" cy="189.579" fx="450.909" fy="189.579" r="21.167" gradientTransform="matrix(0 .15626 .28128 0 -36.786 -15.055)"><stop offset="0" stop-opacity=".314"/><stop offset=".222" stop-opacity=".275"/><stop offset="1" stop-opacity="0"/></radialGradient><radialGradient id="d" gradientUnits="userSpaceOnUse" cx="450.909" cy="189.579" fx="450.909" fy="189.579" r="21.167" gradientTransform="matrix(0 -.15626 .28128 0 -36.786 127.19)"><stop offset="0" stop-opacity=".314"/><stop offset=".222" stop-opacity=".275"/><stop offset="1" stop-opacity="0"/></radialGradient><radialGradient id="e" gradientUnits="userSpaceOnUse" cx="450.909" cy="189.579" fx="450.909" fy="189.579" r="21.167" gradientTransform="matrix(0 .15626 -.28128 0 100.292 -15.055)"><stop offset="0" stop-opacity=".314"/><stop offset=".222" stop-opacity=".275"/><stop offset="1" stop-opacity="0"/></radialGradient><linearGradient id="f" gradientUnits="userSpaceOnUse" x1="323.513" y1="-141.415" x2="323.513" y2="-25.792" gradientTransform="matrix(.1507 0 0 .43482 -11.708 67.283)"><stop offset="0" stop-color="#bdbdbd"/><stop offset="1" stop-color="#eceff1"/></linearGradient><linearGradient id="g" gradientUnits="userSpaceOnUse" x1="960" y1="935.118" x2="960" y2="175.118"><stop offset="0" stop-color="#78909c"/><stop offset="1" stop-color="#90a4ae"/></linearGradient><linearGradient id="h" gradientUnits="userSpaceOnUse" x1="105.833" y1="-105.167" x2="105.833" y2="-121.042" gradientTransform="translate(148.167 -13.23)"><stop offset="0" stop-color="#cfd8dc"/><stop offset="1" stop-color="#eceff1"/></linearGradient><linearGradient id="i" gradientUnits="userSpaceOnUse" x1="105.833" y1="-105.167" x2="105.833" y2="-121.042" gradientTransform="translate(100.542 -13.23)"><stop offset="0" stop-color="#cfd8dc"/><stop offset="1" stop-color="#eceff1"/></linearGradient><linearGradient id="j" gradientUnits="userSpaceOnUse" x1="105.833" y1="-105.167" x2="105.833" y2="-121.042" gradientTransform="translate(52.917 -13.23)"><stop offset="0" stop-color="#cfd8dc"/><stop offset="1" stop-color="#eceff1"/></linearGradient><linearGradient id="k" gradientUnits="userSpaceOnUse" x1="105.833" y1="-105.167" x2="105.833" y2="-121.042" gradientTransform="translate(243.417 -13.23)"><stop offset="0" stop-color="#cfd8dc"/><stop offset="1" stop-color="#eceff1"/></linearGradient><linearGradient id="l" gradientUnits="userSpaceOnUse" x1="105.833" y1="-105.167" x2="105.833" y2="-121.042" gradientTransform="translate(195.792 -13.23)"><stop offset="0" stop-color="#cfd8dc"/><stop offset="1" stop-color="#eceff1"/></linearGradient><linearGradient id="m" gradientUnits="userSpaceOnUse" x1="254" y1="-84" x2="254" y2="-62.833" gradientTransform="matrix(.12452 0 0 .12501 .042 26.878)"><stop offset="0" stop-opacity=".235"/><stop offset="1" stop-opacity="0"/></linearGradient></defs><path d="M15.875 56.066h31.754v2.649H15.875zm0 0" fill="url(#a)"/><path d="M47.629 56.066h5.293v-2.644h-5.293zm0 0" fill="url(#b)"/><path d="M15.875 56.066h-5.29v2.649h5.29zm0 0" fill="url(#c)"/><path d="M15.875 56.066h-5.29v-2.644h5.29zm0 0" fill="url(#d)"/><path d="M47.629 56.066h5.293v2.649h-5.293zm0 0" fill="url(#e)"/><path d="M13.23 5.793h37.047a2.644 2.644 0 0 1 2.645 2.644v44.985a2.644 2.644 0 0 1-2.645 2.644H13.23a2.644 2.644 0 0 1-2.644-2.644V8.438a2.644 2.644 0 0 1 2.644-2.645zm0 0" fill="url(#f)"/><path d="M400.001 175.14c-44.287 0-79.953 35.667-79.953 79.954V495.07h1279.957V255.094c0-44.287-35.666-79.953-79.953-79.953zm0 0" transform="scale(.03308)" fill="url(#g)" stroke-width="11.339" stroke-linecap="round" stroke-linejoin="round" stroke="#212121"/><path d="M13.23 55.918a2.639 2.639 0 0 1-2.644-2.645v-.332a2.639 2.639 0 0 0 2.644 2.645h37.047a2.639 2.639 0 0 0 2.645-2.645v.332a2.639 2.639 0 0 1-2.645 2.645zm0 0" fill-opacity=".196"/><path d="M13.23 5.941a2.639 2.639 0 0 0-2.644 2.645v.332a2.637 2.637 0 0 1 2.644-2.645h37.047a2.637 2.637 0 0 1 2.645 2.645v-.332a2.639 2.639 0 0 0-2.645-2.645zm0 0" fill="#fff"/><path d="M13.23 5.605a2.83 2.83 0 0 0-2.832 2.832v44.985a2.83 2.83 0 0 0 2.832 2.832h37.047a2.83 2.83 0 0 0 2.832-2.832V8.438a2.83 2.83 0 0 0-2.832-2.833zm0 .375h37.047a2.449 2.449 0 0 1 2.457 2.457v44.985a2.447 2.447 0 0 1-2.457 2.457H13.23a2.444 2.444 0 0 1-2.457-2.457V8.438A2.447 2.447 0 0 1 13.23 5.98zm0 0" fill="#212121"/><path d="M246.07-134.258h15.874a7.928 7.928 0 0 1 7.936 7.937c0 4.375-3.562 7.937-7.936 7.937H246.07a7.928 7.928 0 0 1-7.936-7.937 7.908 7.908 0 0 1 7.936-7.937zm0 0" transform="translate(0 26.878) scale(.12501)" fill="url(#h)" stroke-width="3" stroke-linecap="round" stroke-linejoin="round" stroke="#212121"/><path d="M198.45-134.258h15.873a7.928 7.928 0 0 1 7.937 7.937c0 4.375-3.562 7.937-7.937 7.937H198.45a7.928 7.928 0 0 1-7.937-7.937 7.908 7.908 0 0 1 7.937-7.937zm0 0" transform="translate(0 26.878) scale(.12501)" fill="url(#i)" stroke-width="3" stroke-linecap="round" stroke-linejoin="round" stroke="#212121"/><path d="M150.798-134.258h15.905a7.928 7.928 0 0 1 7.937 7.937c0 4.375-3.563 7.937-7.937 7.937h-15.905c-4.374 0-7.937-3.562-7.937-7.937a7.928 7.928 0 0 1 7.937-7.937zm0 0" transform="translate(0 26.878) scale(.12501)" fill="url(#j)" stroke-width="3" stroke-linecap="round" stroke-linejoin="round" stroke="#212121"/><path d="M341.311-134.258h15.874a7.928 7.928 0 0 1 7.936 7.937c0 4.375-3.562 7.937-7.936 7.937H341.31c-4.374 0-7.937-3.562-7.937-7.937a7.928 7.928 0 0 1 7.937-7.937zm0 0" transform="translate(0 26.878) scale(.12501)" fill="url(#k)" stroke-width="3" stroke-linecap="round" stroke-linejoin="round" stroke="#212121"/><path d="M293.69-134.258h15.874a7.928 7.928 0 0 1 7.937 7.937c0 4.375-3.562 7.937-7.937 7.937h-15.873c-4.375 0-7.937-3.562-7.937-7.937a7.928 7.928 0 0 1 7.937-7.937zm0 0" transform="translate(0 26.878) scale(.12501)" fill="url(#l)" stroke-width="3" stroke-linecap="round" stroke-linejoin="round" stroke="#212121"/><path d="M18.453 28.285h6.754c.691 0 1.254.59 1.254 1.32 0 .73-.563 1.325-1.254 1.325h-6.754c-.691 0-1.254-.594-1.254-1.325 0-.73.563-1.32 1.254-1.32zm0 0" fill="#607d8b" fill-opacity=".906"/><path d="M18.523 21.668H30.43a1.325 1.325 0 0 1 0 2.648H18.523a1.325 1.325 0 0 1 0-2.648zm0 0M32.992 34.898h11.992c.73 0 1.32.594 1.32 1.325 0 .73-.59 1.324-1.32 1.324H32.992a1.325 1.325 0 0 1 0-2.649zm0 0" fill="#424242" fill-opacity=".906"/><path d="M33.34 41.516h6.086c.879 0 1.59.59 1.59 1.32 0 .73-.711 1.324-1.59 1.324H33.34c-.875 0-1.586-.594-1.586-1.324 0-.73.71-1.32 1.586-1.32zm0 0" fill="#607d8b" fill-opacity=".906"/><path d="M10.75 16.543h42.008v2.48H10.75zm0 0" fill="url(#m)"/></svg>
